!! 00007] TT[TB
!! Eigene Aufnahme
!!!OTL: MengjiangnÅ
!!!ARE: Asia, China, Jiangsu, Suzhou
!! Ethnic Group: Han
!! III, 471
!!!SCT: C0325
!!!YEM: Copyright 1995, estate of Helmut Schaffrath.
**kern
*ICvox
*Ivox
*M2/4
*k[f#]
*G:
{16g
16e
4g
8a
=1
16b
16dd
16b
16a
4b
=2
8dd
16ee
16dd
16b
16a
16b
16g
=3
2a}
=4
{8dd
8dd
16.b
32dd
16b
16a
=5
16g
16e
16g
16a
8.b
16dd
=6
16a
16b
16a
16g
16e
16d
16e
16g
=7
2d}
=8
{16e
16g
16d
16e
4g
=9
16a
16b
16g
16a
4b
=10
8dd
16b
16a
16.g
32a
16b
16dd
=11
16a
16g
4.e}
=12
{16e
16g
16a
16b
16g
16a
16f#
16e
=13
16d
16B
16d
16e
8.g
16b
=14
16a
16b
16a
16g
16e
16d
16g
16e
=15
2d}
==
!!!AGN: Xiaodiao;chundiao; mengjiangnÅ
!! Vereinzelt Verzierungen. In den einzelnen Strophen teilweise Noten-
!!    textaenderungen. Vorspiel weggelassen.
!!    Grundton in der kleinen Oktave
!!    Wird nicht nach der Notation gesungen, sondern nach einem
!!    Schauspieler der chines. xiju (wuxi) Lokaloper. - Die mengjiang
!!    nÅ ist die typischste Form fuer den Sueden dieser Provinz.
!!    Frueher hiess dies "chun de mingzi" (Fruehlingsweise). Melodie
!!    hier original. Der Text, obwohl schwer zu bestimmen, beschreibt
!!    die 4 Jahreszeiten. Hier wird die Geschichte von MengjiangnÅ
!!    erzaehlt, die an der grossen Mauer weint, weil ihr Mann dort
!!    starb oder eingemauert wurde.(?) Saengerin: Huang Bai
!!    s.a. C384 UND 1274
!!    Pinyin-Text der ersten Strophe vorhanden!
!!!ONB: ESAC (Essen Associative Code) Database: CHINA_048
!!!AMT: simple duple
!!!AIN: vox
!!!EED: Helmut Schaffrath
!!!EEV: 1.0
*-
